!!!OTL: ZWEI WEISSE BLUEMELEIN
!!!ARE: Europa, Mitteleuropa, Deutschland, Schleswig - Holstein
!!!SCT: E0638
!!!YEM: Copyright 1995, estate of Helmut Schaffrath.
**kern
*ICvox
*Ivox
*M3/4
*k[b-e-a-]
*E-:
{8b-
8.b-
16g
=1
4e-
8e-
8g
8.a-
16g
=2
4f
8f}
{8e-
8d
8f
=3
8.dd
16dd
8.dd
16cc
8.b-
16a-
=4
8g
8b-
8ee-
16r}
{16b-
8.cc
16b-
=5
4e-
8e-
8g
8.a-
16g
=6
4.f}
{8e-
8d
8f
=7
8.dd
16cc
8.b-
16b-
8a-
8d
=8
4e-
8r}
==
!!!AGN: Liebes - Lied, Treue
!!!ONB: ESAC (Essen Associative Code) Database: ERK2
!!!AMT: simple triple
!!!AIN: vox
!!!EED: Helmut Schaffrath
!!!EEV: 1.0
*-
